%
(Header)
(Generated by gcodetools from Inkscape.)
(Using default header. To add your own header create file "header" in the output dir.)
M3
(Header end.)
G21 (All units in mm)

(Start cutting path id: path3835)
(Change tool to Default tool)

G00 Z5.000000
G00 X138.584700 Y253.788056

G01 Z-0.125000 F100.0(Penetrate)
G03 X138.301555 Y253.835670 Z-0.125000 I-0.573611 J-2.545397 F400.000000
G03 X138.012226 Y253.851824 Z-0.125000 I-0.289330 J-2.582869
G03 X137.098114 Y253.463416 Z-0.125000 I0.000000 J-1.269876
G03 X136.680080 Y252.427664 Z-0.125000 I1.074109 J-1.035752
G01 X136.680080 Y252.166727 Z-0.125000
G01 X135.968296 Y252.166727 Z-0.125000
G01 X135.968296 Y251.673439 Z-0.125000
G01 X136.680080 Y251.673439 Z-0.125000
G01 X136.680080 Y248.663865 Z-0.125000
G01 X137.307697 Y248.663865 Z-0.125000
G01 X137.307697 Y251.673439 Z-0.125000
G01 X138.270528 Y251.673439 Z-0.125000
G01 X138.270528 Y252.166727 Z-0.125000
G01 X137.307697 Y252.166727 Z-0.125000
G01 X137.307697 Y252.434994 Z-0.125000
G02 X137.537532 Y253.102274 Z-0.125000 I1.083577 J-0.000000
G02 X138.019481 Y253.337280 Z-0.125000 I0.481949 J-0.376689
G02 X138.276036 Y253.320246 Z-0.125000 I-0.000000 J-1.940616
G02 X138.528831 Y253.259585 Z-0.125000 I-0.167266 J-1.254121
G01 X138.584700 Y253.788056 Z-0.125000
G00 Z5.000000

(End cutting path id: path3835)


(Start cutting path id: path3835)
(Change tool to Default tool)

G00 Z5.000000
G00 X134.900983 Y250.440584

G01 Z-0.125000 F100.0(Penetrate)
G02 X134.508454 Y249.395499 Z-0.125000 I-1.587500 J0.000000 F400.000000
G02 X133.938152 Y249.136631 Z-0.125000 I-0.570302 J0.498768
G02 X133.285898 Y249.465022 Z-0.125000 I-0.000000 J0.811953
G02 X132.961535 Y250.447180 Z-0.125000 I1.324789 J0.982159
G02 X133.365329 Y251.456555 Z-0.125000 I1.463476 J-0.000000
G02 X133.938152 Y251.702024 Z-0.125000 I0.572823 J-0.545628
G02 X134.597311 Y251.368043 Z-0.125000 I0.000000 J-0.817462
G02 X134.900983 Y250.440584 Z-0.125000 I-1.264464 J-0.927459
G00 Z5.000000

(End cutting path id: path3835)


(Start cutting path id: path3835)
(Change tool to Default tool)

G00 Z5.000000
G00 X135.556898 Y250.475766

G01 Z-0.125000 F100.0(Penetrate)
G03 X134.971909 Y251.839664 Z-0.125000 I-1.882455 J0.000000 F400.000000
G03 X133.994021 Y252.230495 Z-0.125000 I-0.977888 J-1.027958
G03 X132.775795 Y251.666084 Z-0.125000 I0.000000 J-1.596916
G03 X132.305620 Y250.384145 Z-0.125000 I1.512528 J-1.281939
G03 X132.848181 Y249.033300 Z-0.125000 I1.952920 J-0.000000
G03 X133.861242 Y248.600830 Z-0.125000 I1.013061 J0.970312
G03 X135.066432 Y249.153757 Z-0.125000 I0.000000 J1.589912
G03 X135.556898 Y250.475766 Z-0.125000 I-1.536448 J1.322009
G00 Z5.000000

(End cutting path id: path3835)


(Start cutting path id: path3835)
(Change tool to Default tool)

G00 Z5.000000
G00 X130.177524 Y252.166727

G01 Z-0.125000 F100.0(Penetrate)
G01 X129.494038 Y252.166727 Z-0.125000 F400.000000
G01 X128.936075 Y250.560058 Z-0.125000
G03 X128.714598 Y249.897662 Z-0.125000 I45.539940 J-15.594842
G03 X128.593606 Y249.481859 Z-0.125000 I6.383402 J-2.082973
G01 X128.579820 Y249.481859 Z-0.125000
G03 X128.465325 Y249.882047 Z-0.125000 I-34.414762 J-9.629694
G03 X128.314987 Y250.348962 Z-0.125000 I-8.714418 J-2.548219
G01 X127.659072 Y252.166727 Z-0.125000
G01 X126.947288 Y252.166727 Z-0.125000
G01 X128.259118 Y248.663865 Z-0.125000
G01 X128.112553 Y248.269527 Z-0.125000
G02 X127.668360 Y247.574901 Z-0.125000 I-1.759934 J0.636089
G02 X127.282502 Y247.416351 Z-0.125000 I-0.385859 J0.390250
G02 X127.051560 Y247.434276 Z-0.125000 I-0.000000 J1.496650
G02 X126.835551 Y247.487449 Z-0.125000 I0.198811 J1.272993
G01 X126.779682 Y246.916465 Z-0.125000
G03 X127.013718 Y246.885918 Z-0.125000 I0.849416 J5.595937
G03 X127.233163 Y246.873953 Z-0.125000 I0.219445 J2.006406
G03 X128.008311 Y247.191903 Z-0.125000 I0.000000 J1.103865
G03 X128.733641 Y248.312040 Z-0.125000 I-2.169788 J2.199924
G01 X130.177524 Y252.166727 Z-0.125000
G00 Z5.000000

(End cutting path id: path3835)


(Start cutting path id: path3835)
(Change tool to Default tool)

G00 Z5.000000
G00 X126.416897 Y248.677792

G01 Z-0.125000 F100.0(Penetrate)
G01 X126.416897 Y249.213592 Z-0.125000 F400.000000
G02 X126.194806 Y249.169159 Z-0.125000 I-0.555742 J2.200523
G02 X125.943100 Y249.150557 Z-0.125000 I-0.251706 J1.693595
G02 X125.619384 Y249.322467 Z-0.125000 I0.000000 J0.390743
G02 X125.447536 Y249.883527 Z-0.125000 I0.829967 J0.561060
G01 X125.447536 Y251.673439 Z-0.125000
G01 X126.416897 Y251.673439 Z-0.125000
G01 X126.416897 Y252.166727 Z-0.125000
G01 X125.447536 Y252.166727 Z-0.125000
G01 X125.447536 Y253.478010 Z-0.125000
G01 X124.819193 Y253.302097 Z-0.125000
G01 X124.819193 Y252.166727 Z-0.125000
G01 X124.108134 Y252.166727 Z-0.125000
G01 X124.108134 Y251.673439 Z-0.125000
G01 X124.819193 Y251.673439 Z-0.125000
G01 X124.819193 Y249.657772 Z-0.125000
G03 X125.091747 Y248.912011 Z-0.125000 I1.156550 J0.000000
G03 X125.747196 Y248.607426 Z-0.125000 I0.655449 J0.552954
G03 X126.102807 Y248.626983 Z-0.125000 I-0.000000 J3.242976
G03 X126.416897 Y248.677792 Z-0.125000 I-0.345594 J3.132624
G00 Z5.000000

(End cutting path id: path3835)


(Start cutting path id: path3835)
(Change tool to Default tool)

G00 Z5.000000
G00 X123.284613 Y252.166727

G01 Z-0.125000 F100.0(Penetrate)
G01 X122.656995 Y252.166727 Z-0.125000 F400.000000
G01 X122.656995 Y248.663865 Z-0.125000
G01 X123.284613 Y248.663865 Z-0.125000
G01 X123.284613 Y252.166727 Z-0.125000
G00 Z5.000000

(End cutting path id: path3835)


(Start cutting path id: path3835)
(Change tool to Default tool)

G00 Z5.000000
G00 X123.389095 Y253.160634

G01 Z-0.125000 F100.0(Penetrate)
G03 X123.264753 Y253.451566 Z-0.125000 I-0.402528 J-0.000000 F400.000000
G03 X122.970441 Y253.569631 Z-0.125000 I-0.294312 J-0.307796
G03 X122.673459 Y253.448928 Z-0.125000 I0.000000 J-0.425705
G03 X122.551787 Y253.160634 Z-0.125000 I0.280714 J-0.288294
G03 X122.675787 Y252.865393 Z-0.125000 I0.413481 J0.000000
G03 X122.970441 Y252.745040 Z-0.125000 I0.294654 J0.300516
G03 X123.268766 Y252.869064 Z-0.125000 I-0.000000 J0.420804
G03 X123.389095 Y253.160634 Z-0.125000 I-0.293088 J0.291569
G00 Z5.000000

(End cutting path id: path3835)


(Start cutting path id: path3835)
(Change tool to Default tool)

G00 Z5.000000
G00 X121.505516 Y249.714211

G01 Z-0.125000 F100.0(Penetrate)
G03 X120.525973 Y250.639874 Z-0.125000 I-0.927145 J0.000000 F400.000000
G02 X119.886770 Y251.243918 Z-0.125000 I-0.034192 J0.604044
G02 X120.042308 Y251.560925 Z-0.125000 I0.400818 J-0.000000
G02 X120.577512 Y251.743804 Z-0.125000 I0.535204 J-0.691711
G02 X120.932878 Y251.714925 Z-0.125000 I0.000000 J-2.200938
G02 X121.275510 Y251.631659 Z-0.125000 I-0.373802 J-2.284744
G01 X121.289296 Y252.160130 Z-0.125000
G03 X120.956658 Y252.211979 Z-0.125000 I-0.772997 J-3.866240
G03 X120.626126 Y252.230495 Z-0.125000 I-0.330533 J-2.940907
G03 X119.544512 Y251.836991 Z-0.125000 I-0.000000 J-1.683250
G03 X119.238111 Y251.180150 Z-0.125000 I0.550844 J-0.656841
G03 X120.224343 Y250.239932 Z-0.125000 I0.941292 J0.000000
G02 X120.849601 Y249.643846 Z-0.125000 I0.028492 J-0.596086
G02 X120.662589 Y249.289522 Z-0.125000 I-0.429166 J-0.000000
G02 X120.075418 Y249.108045 Z-0.125000 I-0.587170 J0.859158
G02 X119.661146 Y249.142702 Z-0.125000 I0.000000 J2.493290
G02 X119.315021 Y249.228252 Z-0.125000 I0.393329 J2.334338
G01 X119.293980 Y248.663865 Z-0.125000
G03 X119.629568 Y248.617484 Z-0.125000 I0.600558 J3.108061
G03 X120.026805 Y248.600830 Z-0.125000 I0.397237 J4.729074
G03 X121.162717 Y248.999980 Z-0.125000 I0.000000 J1.815879
G03 X121.505516 Y249.714211 Z-0.125000 I-0.572660 J0.714231
G00 Z5.000000

(End cutting path id: path3835)


(Start cutting path id: path3835)
(Change tool to Default tool)

G00 Z5.000000
G00 X118.533583 Y252.230495

G01 Z-0.125000 F100.0(Penetrate)
G03 X117.697156 Y251.935578 Z-0.125000 I-0.113722 J-1.011039 F400.000000
G03 X117.340021 Y251.335540 Z-0.125000 I1.026780 J-1.017427
G01 X117.326235 Y251.335540 Z-0.125000
G03 X117.389803 Y251.810665 Z-0.125000 I-4.052824 J0.784053
G03 X117.403145 Y252.166727 Z-0.125000 I-4.744452 J0.356062
G01 X116.795843 Y252.166727 Z-0.125000
G01 X116.795843 Y248.663865 Z-0.125000
G01 X117.424187 Y248.663865 Z-0.125000
G01 X117.424187 Y250.073366 Z-0.125000
G02 X117.807222 Y251.314936 Z-0.125000 I2.203731 J-0.000000
G02 X118.505286 Y251.610403 Z-0.125000 I0.578553 J-0.394527
G01 X118.533583 Y252.230495 Z-0.125000
G00 Z5.000000

(End cutting path id: path3835)


(Start cutting path id: path3835)
(Change tool to Default tool)

G00 Z5.000000
G00 X115.031258 Y250.905286

G01 Z-0.125000 F100.0(Penetrate)
G01 X113.412512 Y250.905286 Z-0.125000 F400.000000
G02 X113.714973 Y251.533596 Z-0.125000 I1.118311 J-0.151387
G02 X114.256350 Y251.765060 Z-0.125000 I0.541376 J-0.517386
G02 X114.808777 Y251.516446 Z-0.125000 I-0.000000 J-0.738063
G02 X115.031258 Y250.905286 Z-0.125000 I-0.663022 J-0.587435
G00 Z5.000000

(End cutting path id: path3835)


(Start cutting path id: path3835)
(Change tool to Default tool)

G00 Z5.000000
G00 X115.672662 Y250.757226

G01 Z-0.125000 F100.0(Penetrate)
G03 X115.340942 Y251.716872 Z-0.125000 I-1.553960 J0.000000 F400.000000
G03 X114.284647 Y252.230495 Z-0.125000 I-1.056295 J-0.829354
G03 X113.184148 Y251.695487 Z-0.125000 I-0.000000 J-1.399353
G03 X112.735556 Y250.398071 Z-0.125000 I1.651893 J-1.297415
G03 X113.260566 Y249.080378 Z-0.125000 I1.916107 J0.000000
G03 X114.375343 Y248.600830 Z-0.125000 I1.114777 J1.055954
G03 X115.024046 Y248.661377 Z-0.125000 I0.000000 J3.505370
G03 X115.547138 Y248.819255 Z-0.125000 I-0.473455 J2.514199
G01 X115.491269 Y249.333799 Z-0.125000
G02 X115.033675 Y249.175655 Z-0.125000 I-0.907832 J1.885727
G02 X114.479825 Y249.115374 Z-0.125000 I-0.553850 J2.514221
G02 X113.738757 Y249.455069 Z-0.125000 I-0.000000 J0.978193
G02 X113.384215 Y250.454510 Z-0.125000 I1.110000 J0.956367
G01 X115.651620 Y250.454510 Z-0.125000
G03 X115.668430 Y250.632271 Z-0.125000 I-3.334260 J0.404981
G03 X115.672662 Y250.757226 Z-0.125000 I-1.842858 J0.124956
G00 Z5.000000

(End cutting path id: path3835)


(Start cutting path id: path3835)
(Change tool to Default tool)

G00 Z5.000000
G00 X112.297312 Y252.166727

G01 Z-0.125000 F100.0(Penetrate)
G01 X111.620355 Y252.166727 Z-0.125000 F400.000000
G01 X110.866488 Y250.059439 Z-0.125000
G03 X110.759759 Y249.731645 Z-0.125000 I5.134564 J-1.853077
G03 X110.671310 Y249.418091 Z-0.125000 I18.958678 J-5.517217
G01 X110.657524 Y249.418091 Z-0.125000
G03 X110.565617 Y249.742007 Z-0.125000 I-6.259333 J-1.601016
G03 X110.455090 Y250.080695 Z-0.125000 I-13.173320 J-4.111560
G01 X109.722265 Y252.166727 Z-0.125000
G01 X109.017737 Y252.166727 Z-0.125000
G01 X110.322311 Y248.663865 Z-0.125000
G01 X110.970970 Y248.663865 Z-0.125000
G01 X112.297312 Y252.166727 Z-0.125000
G00 Z5.000000

(End cutting path id: path3835)


(Start cutting path id: path3835)
(Change tool to Default tool)

G00 Z5.000000
G00 X108.159388 Y252.166727

G01 Z-0.125000 F100.0(Penetrate)
G01 X107.531770 Y252.166727 Z-0.125000 F400.000000
G01 X107.531770 Y248.663865 Z-0.125000
G01 X108.159388 Y248.663865 Z-0.125000
G01 X108.159388 Y252.166727 Z-0.125000
G00 Z5.000000

(End cutting path id: path3835)


(Start cutting path id: path3835)
(Change tool to Default tool)

G00 Z5.000000
G00 X108.264595 Y253.160634

G01 Z-0.125000 F100.0(Penetrate)
G03 X108.139924 Y253.451888 Z-0.125000 I-0.402546 J-0.000000 F400.000000
G03 X107.845942 Y253.569631 Z-0.125000 I-0.293983 J-0.308137
G03 X107.548633 Y253.448603 Z-0.125000 I-0.000000 J-0.425686
G03 X107.427288 Y253.160634 Z-0.125000 I0.281022 J-0.287969
G03 X107.550957 Y252.865720 Z-0.125000 I0.413475 J0.000000
G03 X107.845942 Y252.745040 Z-0.125000 I0.294984 J0.300184
G03 X108.143940 Y252.868734 Z-0.125000 I0.000000 J0.420810
G03 X108.264595 Y253.160634 Z-0.125000 I-0.292767 J0.291900
G00 Z5.000000

(End cutting path id: path3835)


(Start cutting path id: path3835)
(Change tool to Default tool)

G00 Z5.000000
G00 X106.143030 Y248.663865

G01 Z-0.125000 F100.0(Penetrate)
G01 X106.143030 Y251.117115 Z-0.125000 F400.000000
G03 X105.906981 Y251.830485 Z-0.125000 I-1.195973 J0.000000
G03 X105.096758 Y252.237825 Z-0.125000 I-0.810223 J-0.602119
G03 X104.327297 Y251.992491 Z-0.125000 I-0.000000 J-1.329331
G03 X103.875625 Y251.427161 Z-0.125000 I0.759400 J-1.069822
G01 X103.861839 Y251.433757 Z-0.125000
G03 X103.908636 Y251.802151 Z-0.125000 I-2.376576 J0.489067
G03 X103.917708 Y252.166727 Z-0.125000 I-7.321422 J0.364576
G01 X103.310406 Y252.166727 Z-0.125000
G01 X103.310406 Y248.663865 Z-0.125000
G01 X103.938749 Y248.663865 Z-0.125000
G01 X103.938749 Y250.348962 Z-0.125000
G02 X104.265407 Y251.370001 Z-0.125000 I1.759065 J-0.000000
G02 X104.922622 Y251.708621 Z-0.125000 I0.657215 J-0.468471
G02 X105.352703 Y251.475265 Z-0.125000 I-0.000000 J-0.513003
G02 X105.515412 Y250.926542 Z-0.125000 I-0.843905 J-0.548722
G01 X105.515412 Y248.663865 Z-0.125000
G01 X106.143030 Y248.663865 Z-0.125000
G00 Z5.000000

(End cutting path id: path3835)


(Start cutting path id: path3835)
(Change tool to Default tool)

G00 Z5.000000
G00 X101.908605 Y250.482363

G01 Z-0.125000 F100.0(Penetrate)
G01 X101.908605 Y253.421571 Z-0.125000 F400.000000
G01 X101.280262 Y253.421571 Z-0.125000
G01 X101.280262 Y250.433254 Z-0.125000
G02 X100.889395 Y249.473056 Z-0.125000 I-1.374838 J0.000000
G02 X100.073640 Y249.129301 Z-0.125000 I-0.815756 J0.796046
G02 X99.147808 Y249.593040 Z-0.125000 I0.000000 J1.156057
G02 X98.908375 Y250.313047 Z-0.125000 I0.962860 J0.720006
G01 X98.908375 Y253.421571 Z-0.125000
G01 X98.266246 Y253.421571 Z-0.125000
G01 X98.266246 Y250.263938 Z-0.125000
G03 X98.578567 Y249.322556 Z-0.125000 I1.574894 J-0.000000
G03 X100.031557 Y248.593500 Z-0.125000 I1.452990 J1.083358
G03 X101.352502 Y249.140409 Z-0.125000 I0.000000 J1.868688
G03 X101.908605 Y250.482363 Z-0.125000 I-1.341107 J1.341953
G00 Z5.000000

(End cutting path id: path3835)


(Start cutting path id: path3829)
(Change tool to Default tool)

G00 Z5.000000
G00 X149.524830 Y241.782013

G01 Z-0.125000 F100.0(Penetrate)
G03 X148.545656 Y242.707328 Z-0.125000 I-0.926796 J0.000000 F400.000000
G02 X147.906084 Y243.311721 Z-0.125000 I-0.034212 J0.604393
G02 X148.061405 Y243.628495 Z-0.125000 I0.400689 J0.000000
G02 X148.596826 Y243.811606 Z-0.125000 I0.535422 J-0.691239
G02 X148.951734 Y243.782626 Z-0.125000 I-0.000000 J-2.187710
G02 X149.294099 Y243.698729 Z-0.125000 I-0.369926 J-2.250080
G01 X149.308610 Y244.227933 Z-0.125000
G03 X148.975409 Y244.279785 Z-0.125000 I-0.779321 J-3.911400
G03 X148.645440 Y244.298298 Z-0.125000 I-0.329969 J-2.931394
G03 X147.563826 Y243.904793 Z-0.125000 I0.000000 J-1.683250
G03 X147.257425 Y243.247952 Z-0.125000 I0.550844 J-0.656841
G03 X148.243657 Y242.307734 Z-0.125000 I0.941292 J0.000000
G02 X148.868915 Y241.711648 Z-0.125000 I0.028492 J-0.596086
G02 X148.681578 Y241.357132 Z-0.125000 I-0.429111 J0.000000
G02 X148.094007 Y241.175847 Z-0.125000 I-0.587571 J0.861562
G02 X147.680155 Y241.210343 Z-0.125000 I-0.000000 J2.499801
G02 X147.333610 Y241.295321 Z-0.125000 I0.398680 J2.374926
G01 X147.312568 Y240.731667 Z-0.125000
G03 X147.648755 Y240.685288 Z-0.125000 I0.603928 J3.135987
G03 X148.045393 Y240.668632 Z-0.125000 I0.396638 J4.714447
G03 X149.181815 Y241.067703 Z-0.125000 I0.000000 J1.817612
G03 X149.524830 Y241.782013 Z-0.125000 I-0.572248 J0.714310
G00 Z5.000000

(End cutting path id: path3829)


(Start cutting path id: path3829)
(Change tool to Default tool)

G00 Z5.000000
G00 X145.805560 Y242.973089

G01 Z-0.125000 F100.0(Penetrate)
G01 X144.187540 Y242.973089 Z-0.125000 F400.000000
G02 X144.490001 Y243.601398 Z-0.125000 I1.118311 J-0.151387
G02 X145.031377 Y243.832862 Z-0.125000 I0.541376 J-0.517386
G02 X145.583365 Y243.584539 Z-0.125000 I0.000000 J-0.737657
G02 X145.805560 Y242.973089 Z-0.125000 I-0.661623 J-0.586524
G00 Z5.000000

(End cutting path id: path3829)


(Start cutting path id: path3829)
(Change tool to Default tool)

G00 Z5.000000
G00 X146.447689 Y242.825029

G01 Z-0.125000 F100.0(Penetrate)
G03 X146.115969 Y243.784675 Z-0.125000 I-1.553960 J0.000000 F400.000000
G03 X145.059674 Y244.298298 Z-0.125000 I-1.056295 J-0.829354
G03 X143.959175 Y243.763289 Z-0.125000 I0.000000 J-1.399353
G03 X143.510583 Y242.465874 Z-0.125000 I1.651893 J-1.297415
G03 X144.035297 Y241.148466 Z-0.125000 I1.916176 J-0.000000
G03 X145.150371 Y240.668632 Z-0.125000 I1.115073 J1.055729
G03 X145.799073 Y240.729179 Z-0.125000 I-0.000000 J3.505370
G03 X146.322166 Y240.887057 Z-0.125000 I-0.473455 J2.514199
G01 X146.266297 Y241.401602 Z-0.125000
G02 X145.808702 Y241.243457 Z-0.125000 I-0.907832 J1.885727
G02 X145.254853 Y241.183177 Z-0.125000 I-0.553850 J2.514221
G02 X144.513784 Y241.522872 Z-0.125000 I-0.000000 J0.978193
G02 X144.159242 Y242.522312 Z-0.125000 I1.110000 J0.956367
G01 X146.426648 Y242.522312 Z-0.125000
G03 X146.443458 Y242.700073 Z-0.125000 I-3.334260 J0.404981
G03 X146.447689 Y242.825029 Z-0.125000 I-1.842858 J0.124956
G00 Z5.000000

(End cutting path id: path3829)


(Start cutting path id: path3829)
(Change tool to Default tool)

G00 Z5.000000
G00 X142.869905 Y240.865801

G01 Z-0.125000 F100.0(Penetrate)
G01 X142.821292 Y241.415528 Z-0.125000 F400.000000
G02 X142.451913 Y241.276548 Z-0.125000 I-0.701592 J1.304321
G02 X141.997770 Y241.224956 Z-0.125000 I-0.454142 J1.973028
G02 X141.241847 Y241.641414 Z-0.125000 I0.000000 J0.894277
G02 X141.007368 Y242.451214 Z-0.125000 I1.281128 J0.809800
G02 X141.316725 Y243.398928 Z-0.125000 I1.606337 J0.000000
G02 X142.047109 Y243.769827 Z-0.125000 I0.730384 J-0.533698
G02 X142.456562 Y243.724567 Z-0.125000 I0.000000 J-1.874751
G02 X142.793720 Y243.621767 Z-0.125000 I-0.508493 J-2.272017
G01 X142.863375 Y244.178091 Z-0.125000
G03 X142.486145 Y244.260285 Z-0.125000 I-0.813558 J-2.827095
G03 X142.074681 Y244.290968 Z-0.125000 I-0.411464 J-2.743504
G03 X140.818621 Y243.695809 Z-0.125000 I0.000000 J-1.623012
G03 X140.344197 Y242.366923 Z-0.125000 I1.623929 J-1.328886
G03 X140.952872 Y241.025546 Z-0.125000 I1.782378 J-0.000000
G03 X141.865717 Y240.682559 Z-0.125000 I0.912845 J1.043253
G03 X142.497040 Y240.751287 Z-0.125000 I-0.000000 J2.933964
G03 X142.869905 Y240.865801 Z-0.125000 I-0.518008 J2.350959
G00 Z5.000000

(End cutting path id: path3829)


(Start cutting path id: path3829)
(Change tool to Default tool)

G00 Z5.000000
G00 X139.332753 Y240.731667

G01 Z-0.125000 F100.0(Penetrate)
G01 X139.332753 Y243.184917 Z-0.125000 F400.000000
G03 X139.096704 Y243.898287 Z-0.125000 I-1.195973 J-0.000000
G03 X138.286482 Y244.305628 Z-0.125000 I-0.810223 J-0.602119
G03 X137.517020 Y244.060294 Z-0.125000 I0.000000 J-1.329331
G03 X137.065348 Y243.494963 Z-0.125000 I0.759400 J-1.069822
G01 X137.051562 Y243.501560 Z-0.125000
G03 X137.098359 Y243.869953 Z-0.125000 I-2.376576 J0.489067
G03 X137.107431 Y244.234529 Z-0.125000 I-7.321422 J0.364576
G01 X136.500129 Y244.234529 Z-0.125000
G01 X136.500129 Y240.731667 Z-0.125000
G01 X137.128473 Y240.731667 Z-0.125000
G01 X137.128473 Y242.416765 Z-0.125000
G02 X137.455134 Y243.438109 Z-0.125000 I1.760007 J-0.000000
G02 X138.111619 Y243.776423 Z-0.125000 I0.656486 J-0.467785
G02 X138.542360 Y243.542835 Z-0.125000 I-0.000000 J-0.513941
G02 X138.705135 Y242.994345 Z-0.125000 I-0.842715 J-0.548490
G01 X138.705135 Y240.731667 Z-0.125000
G01 X139.332753 Y240.731667 Z-0.125000
G00 Z5.000000

(End cutting path id: path3829)


(Start cutting path id: path3829)
(Change tool to Default tool)

G00 Z5.000000
G00 X134.805199 Y242.973089

G01 Z-0.125000 F100.0(Penetrate)
G01 X133.186453 Y242.973089 Z-0.125000 F400.000000
G02 X133.488914 Y243.601398 Z-0.125000 I1.118311 J-0.151387
G02 X134.030290 Y243.832862 Z-0.125000 I0.541376 J-0.517386
G02 X134.582421 Y243.584559 Z-0.125000 I0.000000 J-0.738013
G02 X134.805199 Y242.973089 Z-0.125000 I-0.662664 J-0.587747
G00 Z5.000000

(End cutting path id: path3829)


(Start cutting path id: path3829)
(Change tool to Default tool)

G00 Z5.000000
G00 X135.446602 Y242.825029

G01 Z-0.125000 F100.0(Penetrate)
G03 X135.114882 Y243.784675 Z-0.125000 I-1.553960 J0.000000 F400.000000
G03 X134.058587 Y244.298298 Z-0.125000 I-1.056295 J-0.829354
G03 X132.958088 Y243.763289 Z-0.125000 I0.000000 J-1.399353
G03 X132.509496 Y242.465874 Z-0.125000 I1.651893 J-1.297415
G03 X133.034210 Y241.148466 Z-0.125000 I1.916176 J-0.000000
G03 X134.149284 Y240.668632 Z-0.125000 I1.115073 J1.055729
G03 X134.797986 Y240.729179 Z-0.125000 I-0.000000 J3.505370
G03 X135.321079 Y240.887057 Z-0.125000 I-0.473455 J2.514199
G01 X135.265210 Y241.401602 Z-0.125000
G02 X134.807615 Y241.243457 Z-0.125000 I-0.907832 J1.885727
G02 X134.253766 Y241.183177 Z-0.125000 I-0.553850 J2.514221
G02 X133.512697 Y241.522872 Z-0.125000 I0.000000 J0.978193
G02 X133.158155 Y242.522312 Z-0.125000 I1.110000 J0.956367
G01 X135.425561 Y242.522312 Z-0.125000
G03 X135.442371 Y242.700073 Z-0.125000 I-3.334260 J0.404981
G03 X135.446602 Y242.825029 Z-0.125000 I-1.842858 J0.124956
G00 Z5.000000

(End cutting path id: path3829)


(Start cutting path id: path3829)
(Change tool to Default tool)

G00 Z5.000000
G00 X131.490796 Y244.234529

G01 Z-0.125000 F100.0(Penetrate)
G01 X130.863179 Y244.234529 Z-0.125000 F400.000000
G01 X130.863179 Y240.731667 Z-0.125000
G01 X131.490796 Y240.731667 Z-0.125000
G01 X131.490796 Y244.234529 Z-0.125000
G00 Z5.000000

(End cutting path id: path3829)


(Start cutting path id: path3829)
(Change tool to Default tool)

G00 Z5.000000
G00 X131.595278 Y245.228436

G01 Z-0.125000 F100.0(Penetrate)
G03 X131.470607 Y245.519690 Z-0.125000 I-0.402546 J0.000000 F400.000000
G03 X131.176625 Y245.637433 Z-0.125000 I-0.293983 J-0.308137
G03 X130.879642 Y245.516731 Z-0.125000 I-0.000000 J-0.425705
G03 X130.757971 Y245.228436 Z-0.125000 I0.280714 J-0.288294
G03 X130.881970 Y244.933196 Z-0.125000 I0.413481 J0.000000
G03 X131.176625 Y244.812843 Z-0.125000 I0.294654 J0.300516
G03 X131.474613 Y244.936526 Z-0.125000 I-0.000000 J0.420810
G03 X131.595278 Y245.228436 Z-0.125000 I-0.292757 J0.291910
G00 Z5.000000

(End cutting path id: path3829)


(Start cutting path id: path3829)
(Change tool to Default tool)

G00 Z5.000000
G00 X129.906878 Y240.865801

G01 Z-0.125000 F100.0(Penetrate)
G01 X129.858265 Y241.415528 Z-0.125000 F400.000000
G02 X129.488885 Y241.276548 Z-0.125000 I-0.701592 J1.304321
G02 X129.034743 Y241.224956 Z-0.125000 I-0.454142 J1.973028
G02 X128.278820 Y241.641414 Z-0.125000 I-0.000000 J0.894277
G02 X128.044341 Y242.451214 Z-0.125000 I1.281128 J0.809800
G02 X128.353698 Y243.398928 Z-0.125000 I1.606337 J0.000000
G02 X129.084082 Y243.769827 Z-0.125000 I0.730384 J-0.533698
G02 X129.493535 Y243.724567 Z-0.125000 I-0.000000 J-1.874751
G02 X129.830693 Y243.621767 Z-0.125000 I-0.508493 J-2.272017
G01 X129.900348 Y244.178091 Z-0.125000
G03 X129.523117 Y244.260285 Z-0.125000 I-0.813558 J-2.827095
G03 X129.111653 Y244.290968 Z-0.125000 I-0.411464 J-2.743504
G03 X127.856029 Y243.695742 Z-0.125000 I0.000000 J-1.621978
G03 X127.381895 Y242.366923 Z-0.125000 I1.625026 J-1.328819
G03 X127.990205 Y241.025623 Z-0.125000 I1.782912 J0.000000
G03 X128.902689 Y240.682559 Z-0.125000 I0.912484 J1.041982
G03 X129.534013 Y240.751287 Z-0.125000 I-0.000000 J2.933964
G03 X129.906878 Y240.865801 Z-0.125000 I-0.518008 J2.350959
G00 Z5.000000

(End cutting path id: path3829)


(Start cutting path id: path3829)
(Change tool to Default tool)

G00 Z5.000000
G00 X126.593201 Y242.134571

G01 Z-0.125000 F100.0(Penetrate)
G03 X125.335436 Y243.400832 Z-0.125000 I-1.266289 J0.000000 F400.000000
G02 X124.465105 Y244.277042 Z-0.125000 I0.005899 J0.876210
G02 X124.692209 Y244.752435 Z-0.125000 I0.611118 J0.000000
G02 X125.441722 Y245.017341 Z-0.125000 I0.749513 J-0.927864
G02 X125.869124 Y244.983765 Z-0.125000 I0.000000 J-2.737035
G02 X126.293541 Y244.890537 Z-0.125000 I-0.571226 J-3.613196
G01 X126.328368 Y245.468117 Z-0.125000
G03 X125.905784 Y245.531754 Z-0.125000 I-0.848521 J-4.199772
G03 X125.476550 Y245.553142 Z-0.125000 I-0.429235 J-4.296418
G03 X124.207117 Y245.084511 Z-0.125000 I-0.000000 J-1.953642
G03 X123.802660 Y244.206677 Z-0.125000 I0.750399 J-0.877834
G03 X125.045227 Y242.938983 Z-0.125000 I1.267948 J0.000000
G02 X125.923500 Y242.042950 Z-0.125000 I-0.017939 J-0.896033
G02 X125.592459 Y241.432911 Z-0.125000 I-0.727608 J-0.000000
G02 X124.891015 Y241.224956 Z-0.125000 I-0.701445 J1.079032
G02 X124.368330 Y241.276489 Z-0.125000 I-0.000000 J2.676475
G02 X123.920928 Y241.401602 Z-0.125000 I0.596465 J2.995467
G01 X123.886101 Y240.781509 Z-0.125000
G03 X124.310665 Y240.700514 Z-0.125000 I0.815081 J3.119272
G03 X124.835146 Y240.668632 Z-0.125000 I0.524481 J4.298101
G03 X126.152386 Y241.163400 Z-0.125000 I0.000000 J2.000853
G03 X126.593201 Y242.134571 Z-0.125000 I-0.849398 J0.971171
G00 Z5.000000

(End cutting path id: path3829)


(Start cutting path id: path3829)
(Change tool to Default tool)

G00 Z5.000000
G00 X120.425859 Y242.542836

G01 Z-0.125000 F100.0(Penetrate)
G02 X120.201985 Y241.629441 Z-0.125000 I-1.975237 J-0.000000 F400.000000
G02 X119.476814 Y241.189774 Z-0.125000 I-0.725171 J0.378201
G02 X118.963750 Y241.476193 Z-0.125000 I0.000000 J0.602735
G02 X118.709161 Y242.374252 Z-0.125000 I1.456652 J0.898059
G02 X119.124954 Y243.473744 Z-0.125000 I1.661605 J-0.000000
G02 X119.812027 Y243.783753 Z-0.125000 I0.687073 J-0.606377
G02 X120.105249 Y243.767108 Z-0.125000 I-0.000000 J-2.591085
G02 X120.425859 Y243.706058 Z-0.125000 I-0.247257 J-2.170878
G01 X120.425859 Y242.542836 Z-0.125000
G00 Z5.000000

(End cutting path id: path3829)


(Start cutting path id: path3829)
(Change tool to Default tool)

G00 Z5.000000
G00 X121.053477 Y240.731667

G01 Z-0.125000 F100.0(Penetrate)
G01 X121.053477 Y245.877114 Z-0.125000 F400.000000
G01 X120.425859 Y245.877114 Z-0.125000
G01 X120.425859 Y244.248456 Z-0.125000
G03 X120.116871 Y244.274795 Z-0.125000 I-0.978167 J-9.649527
G03 X119.839599 Y244.284371 Z-0.125000 I-0.277272 J-4.009166
G03 X118.605355 Y243.744664 Z-0.125000 I-0.000000 J-1.681134
G03 X118.046716 Y242.317814 Z-0.125000 I1.542877 J-1.426850
G03 X118.440816 Y241.115593 Z-0.125000 I2.030768 J0.000000
G03 X119.323719 Y240.668632 Z-0.125000 I0.882903 J0.648540
G03 X120.042637 Y240.895232 Z-0.125000 I-0.000000 J1.253733
G03 X120.488258 Y241.450711 Z-0.125000 I-0.728635 J1.041016
G01 X120.502770 Y241.443381 Z-0.125000
G03 X120.455995 Y241.079803 Z-0.125000 I2.372983 J-0.490084
G03 X120.446901 Y240.731667 Z-0.125000 I6.658961 J-0.348136
G01 X121.053477 Y240.731667 Z-0.125000
G00 Z5.000000

(End cutting path id: path3829)


(Start cutting path id: path3829)
(Change tool to Default tool)

G00 Z5.000000
G00 X116.657976 Y242.973089

G01 Z-0.125000 F100.0(Penetrate)
G01 X115.039956 Y242.973089 Z-0.125000 F400.000000
G02 X115.342417 Y243.601398 Z-0.125000 I1.118311 J-0.151387
G02 X115.883793 Y243.832862 Z-0.125000 I0.541376 J-0.517386
G02 X116.435781 Y243.584539 Z-0.125000 I0.000000 J-0.737657
G02 X116.657976 Y242.973089 Z-0.125000 I-0.661623 J-0.586524
G00 Z5.000000

(End cutting path id: path3829)


(Start cutting path id: path3829)
(Change tool to Default tool)

G00 Z5.000000
G00 X117.300105 Y242.825029

G01 Z-0.125000 F100.0(Penetrate)
G03 X116.968363 Y243.784453 Z-0.125000 I-1.553236 J0.000000 F400.000000
G03 X115.911365 Y244.298298 Z-0.125000 I-1.056998 J-0.830221
G03 X114.811582 Y243.763546 Z-0.125000 I0.000000 J-1.398294
G03 X114.362999 Y242.465874 Z-0.125000 I1.652677 J-1.297672
G03 X114.887693 Y241.148253 Z-0.125000 I1.916764 J-0.000000
G03 X116.002061 Y240.668632 Z-0.125000 I1.114368 J1.054771
G03 X116.651073 Y240.729244 Z-0.125000 I-0.000000 J3.504998
G03 X117.174582 Y240.887057 Z-0.125000 I-0.476025 J2.526323
G01 X117.118713 Y241.401602 Z-0.125000
G02 X116.660530 Y241.243456 Z-0.125000 I-0.911819 J1.898940
G02 X116.107269 Y241.183177 Z-0.125000 I-0.553262 J2.508853
G02 X115.365671 Y241.523119 Z-0.125000 I-0.000000 J0.978882
G02 X115.011658 Y242.522312 Z-0.125000 I1.108494 J0.955048
G01 X117.279064 Y242.522312 Z-0.125000
G03 X117.295651 Y242.700047 Z-0.125000 I-4.063801 J0.468912
G03 X117.300105 Y242.825029 Z-0.125000 I-1.751419 J0.124982
G00 Z5.000000

(End cutting path id: path3829)


(Start cutting path id: path3829)
(Change tool to Default tool)

G00 Z5.000000
G00 X113.344299 Y244.234529

G01 Z-0.125000 F100.0(Penetrate)
G01 X112.716682 Y244.234529 Z-0.125000 F400.000000
G01 X112.716682 Y240.731667 Z-0.125000
G01 X113.344299 Y240.731667 Z-0.125000
G01 X113.344299 Y244.234529 Z-0.125000
G00 Z5.000000

(End cutting path id: path3829)


(Start cutting path id: path3829)
(Change tool to Default tool)

G00 Z5.000000
G00 X113.448781 Y245.228436

G01 Z-0.125000 F100.0(Penetrate)
G03 X113.324110 Y245.519690 Z-0.125000 I-0.402546 J0.000000 F400.000000
G03 X113.030128 Y245.637433 Z-0.125000 I-0.293983 J-0.308137
G03 X112.733145 Y245.516731 Z-0.125000 I0.000000 J-0.425705
G03 X112.611474 Y245.228436 Z-0.125000 I0.280714 J-0.288294
G03 X112.735474 Y244.933196 Z-0.125000 I0.413481 J0.000000
G03 X113.030128 Y244.812843 Z-0.125000 I0.294654 J0.300516
G03 X113.328116 Y244.936526 Z-0.125000 I-0.000000 J0.420810
G03 X113.448781 Y245.228436 Z-0.125000 I-0.292757 J0.291910
G00 Z5.000000

(End cutting path id: path3829)


(Start cutting path id: path3829)
(Change tool to Default tool)

G00 Z5.000000
G00 X111.390340 Y245.877114

G01 Z-0.125000 F100.0(Penetrate)
G01 X110.762723 Y245.877114 Z-0.125000 F400.000000
G01 X110.762723 Y240.731667 Z-0.125000
G01 X111.390340 Y240.731667 Z-0.125000
G01 X111.390340 Y245.877114 Z-0.125000
G00 Z5.000000

(End cutting path id: path3829)


(Start cutting path id: path3829)
(Change tool to Default tool)

G00 Z5.000000
G00 X109.074322 Y242.592677

G01 Z-0.125000 F100.0(Penetrate)
G02 X108.658551 Y241.492943 Z-0.125000 I-1.662312 J-0.000000 F400.000000
G02 X107.972182 Y241.183177 Z-0.125000 I-0.686370 J0.605535
G02 X107.627819 Y241.207132 Z-0.125000 I0.000000 J2.487139
G02 X107.358350 Y241.267468 Z-0.125000 I0.235193 J1.682308
G01 X107.358350 Y242.423361 Z-0.125000
G02 X107.582214 Y243.337095 Z-0.125000 I1.976697 J0.000000
G02 X108.306669 Y243.776423 Z-0.125000 I0.724455 J-0.377651
G02 X108.819965 Y243.489881 Z-0.125000 I0.000000 J-0.603016
G02 X109.074322 Y242.592677 Z-0.125000 I-1.455194 J-0.897204
G00 Z5.000000

(End cutting path id: path3829)


(Start cutting path id: path3829)
(Change tool to Default tool)

G00 Z5.000000
G00 X109.730237 Y242.649116

G01 Z-0.125000 F100.0(Penetrate)
G03 X109.304641 Y243.886281 Z-0.125000 I-2.010953 J0.000000 F400.000000
G03 X108.460490 Y244.298298 Z-0.125000 I-0.844151 J-0.658750
G03 X107.742534 Y244.075108 Z-0.125000 I0.000000 J-1.266351
G03 X107.295225 Y243.516219 Z-0.125000 I0.702489 J-1.020688
G01 X107.281439 Y243.522816 Z-0.125000
G03 X107.328369 Y243.880664 Z-0.125000 I-2.211598 J0.472036
G03 X107.337308 Y244.234529 Z-0.125000 I-6.999127 J0.353865
G01 X106.730006 Y244.234529 Z-0.125000
G01 X106.730006 Y238.990865 Z-0.125000
G01 X107.358350 Y238.990865 Z-0.125000
G01 X107.358350 Y240.731667 Z-0.125000
G03 X107.642050 Y240.698723 Z-0.125000 I0.430116 J2.465940
G03 X107.943884 Y240.689888 Z-0.125000 I0.301834 J5.151421
G03 X109.177215 Y241.231128 Z-0.125000 I0.000000 J1.675823
G03 X109.730237 Y242.649116 Z-0.125000 I-1.541401 J1.417988
G00 Z5.000000

(End cutting path id: path3829)


(Start cutting path id: path3829)
(Change tool to Default tool)

G00 Z5.000000
G00 X105.041606 Y242.592677

G01 Z-0.125000 F100.0(Penetrate)
G02 X104.625835 Y241.492943 Z-0.125000 I-1.662312 J0.000000 F400.000000
G02 X103.939466 Y241.183177 Z-0.125000 I-0.686370 J0.605535
G02 X103.595103 Y241.207132 Z-0.125000 I-0.000000 J2.487139
G02 X103.325634 Y241.267468 Z-0.125000 I0.235193 J1.682308
G01 X103.325634 Y242.423361 Z-0.125000
G02 X103.549498 Y243.337095 Z-0.125000 I1.976697 J0.000000
G02 X104.273953 Y243.776423 Z-0.125000 I0.724455 J-0.377651
G02 X104.787249 Y243.489881 Z-0.125000 I0.000000 J-0.603016
G02 X105.041606 Y242.592677 Z-0.125000 I-1.455194 J-0.897204
G00 Z5.000000

(End cutting path id: path3829)


(Start cutting path id: path3829)
(Change tool to Default tool)

G00 Z5.000000
G00 X105.697521 Y242.649116

G01 Z-0.125000 F100.0(Penetrate)
G03 X105.271925 Y243.886281 Z-0.125000 I-2.010953 J0.000000 F400.000000
G03 X104.427774 Y244.298298 Z-0.125000 I-0.844151 J-0.658750
G03 X103.709818 Y244.075108 Z-0.125000 I-0.000000 J-1.266351
G03 X103.262509 Y243.516219 Z-0.125000 I0.702489 J-1.020688
G01 X103.248723 Y243.522816 Z-0.125000
G03 X103.295652 Y243.880664 Z-0.125000 I-2.211598 J0.472036
G03 X103.304592 Y244.234529 Z-0.125000 I-6.999127 J0.353865
G01 X102.697290 Y244.234529 Z-0.125000
G01 X102.697290 Y238.990865 Z-0.125000
G01 X103.325634 Y238.990865 Z-0.125000
G01 X103.325634 Y240.731667 Z-0.125000
G03 X103.609334 Y240.698723 Z-0.125000 I0.430116 J2.465940
G03 X103.911168 Y240.689888 Z-0.125000 I0.301834 J5.151421
G03 X105.144499 Y241.231128 Z-0.125000 I0.000000 J1.675823
G03 X105.697521 Y242.649116 Z-0.125000 I-1.541401 J1.417988
G00 Z5.000000

(End cutting path id: path3829)


(Start cutting path id: path3829)
(Change tool to Default tool)

G00 Z5.000000
G00 X100.618533 Y242.360326

G01 Z-0.125000 F100.0(Penetrate)
G01 X98.957704 Y242.360326 Z-0.125000 F400.000000
G01 X99.565006 Y244.051287 Z-0.125000
G03 X99.688164 Y244.419890 Z-0.125000 I-4.626388 J1.750642
G03 X99.781226 Y244.770330 Z-0.125000 I-7.377603 J2.146761
G01 X99.795012 Y244.770330 Z-0.125000
G03 X99.886768 Y244.413375 Z-0.125000 I6.300692 J1.429331
G03 X100.004701 Y244.058617 Z-0.125000 I4.402987 J1.266722
G01 X100.618533 Y242.360326 Z-0.125000
G00 Z5.000000

(End cutting path id: path3829)


(Start cutting path id: path3829)
(Change tool to Default tool)

G00 Z5.000000
G00 X101.902066 Y240.731667

G01 Z-0.125000 F100.0(Penetrate)
G01 X100.171582 Y245.489374 Z-0.125000 F400.000000
G01 X99.460524 Y245.489374 Z-0.125000
G01 X97.743826 Y240.731667 Z-0.125000
G01 X98.399741 Y240.731667 Z-0.125000
G01 X98.790823 Y241.845048 Z-0.125000
G01 X100.792670 Y241.845048 Z-0.125000
G01 X101.183752 Y240.731667 Z-0.125000
G01 X101.902066 Y240.731667 Z-0.125000
G00 Z5.000000

(End cutting path id: path3829)


(Start cutting path id: path3823)
(Change tool to Default tool)

G00 Z5.000000
G00 X95.504723 Y231.447140

G01 Z-0.125000 F100.0(Penetrate)
G03 X93.875953 Y232.173386 Z-0.125000 I-3.442048 J-5.530004 F400.000000
G03 X92.161298 Y232.416859 Z-0.125000 I-1.714655 J-5.915977
G03 X87.665980 Y230.577354 Z-0.125000 I0.000000 J-6.412505
G03 X85.798778 Y226.123581 Z-0.125000 I4.378116 J-4.453773
G03 X87.665727 Y221.670576 Z-0.125000 I6.244080 J0.000000
G03 X92.161298 Y219.831037 Z-0.125000 I4.495572 J4.573499
G03 X93.875953 Y220.074510 Z-0.125000 I-0.000000 J6.159450
G03 X95.504723 Y220.800756 Z-0.125000 I-1.813278 J6.256250
G01 X94.289394 Y222.202194 Z-0.125000
G02 X93.295255 Y221.774183 Z-0.125000 I-2.261485 J3.884197
G02 X92.159121 Y221.610687 Z-0.125000 I-1.136134 J3.865750
G02 X89.082419 Y222.912688 Z-0.125000 I0.000000 J4.286212
G02 X87.781034 Y226.123581 Z-0.125000 I3.310409 J3.210894
G02 X89.082669 Y229.335251 Z-0.125000 I4.613074 J0.000000
G02 X92.159121 Y230.637209 Z-0.125000 I3.076452 J-2.983763
G02 X93.294903 Y230.473560 Z-0.125000 I0.000000 J-4.023199
G02 X94.289394 Y230.045702 Z-0.125000 I-1.275567 J-4.334562
G01 X95.504723 Y231.447140 Z-0.125000
G00 Z5.000000

(End cutting path id: path3823)


(Start cutting path id: path3817)
(Change tool to Default tool)

G00 Z5.000000
G00 X150.119800 Y224.403302

G01 Z-0.125000 F100.0(Penetrate)
G01 X150.119800 Y232.286391 Z-0.125000 F400.000000
G01 X148.125935 Y232.286391 Z-0.125000
G01 X148.125935 Y224.837953 Z-0.125000
G02 X147.165163 Y222.431108 Z-0.125000 I-3.495100 J0.000000
G02 X145.319431 Y221.638540 Z-0.125000 I-1.845732 J1.752887
G02 X143.482694 Y222.423260 Z-0.125000 I0.000000 J2.541919
G02 X142.513653 Y224.837953 Z-0.125000 I2.523992 J2.414693
G01 X142.513653 Y232.286391 Z-0.125000
G01 X140.519788 Y232.286391 Z-0.125000
G01 X140.519788 Y224.403302 Z-0.125000
G03 X141.778565 Y221.249213 Z-0.125000 I4.580954 J-0.000000
G03 X145.319431 Y219.728422 Z-0.125000 I3.540866 J3.361714
G03 X148.860758 Y221.249140 Z-0.125000 I-0.000000 J4.883738
G03 X150.119800 Y224.403302 Z-0.125000 I-3.321395 J3.154162
G00 Z5.000000

(End cutting path id: path3817)


(Start cutting path id: path3811)
(Change tool to Default tool)

G00 Z5.000000
G00 X84.251138 Y219.961506

G01 Z-0.125000 F100.0(Penetrate)
G01 X84.251138 Y221.659797 Z-0.125000 F400.000000
G01 X79.785257 Y221.659797 Z-0.125000
G01 X79.785257 Y225.495427 Z-0.125000
G01 X83.413105 Y225.495427 Z-0.125000
G01 X83.413105 Y227.121154 Z-0.125000
G01 X79.785257 Y227.121154 Z-0.125000
G01 X79.785257 Y230.627680 Z-0.125000
G01 X84.251138 Y230.627680 Z-0.125000
G01 X84.251138 Y232.289323 Z-0.125000
G01 X77.814610 Y232.289323 Z-0.125000
G01 X77.814610 Y219.961506 Z-0.125000
G01 X84.251138 Y219.961506 Z-0.125000
G00 Z5.000000

(End cutting path id: path3811)


(Start cutting path id: path3805)
(Change tool to Default tool)

G00 Z5.000000
G00 X166.812260 Y219.961506

G01 Z-0.125000 F100.0(Penetrate)
G01 X164.950448 Y232.289323 Z-0.125000 F400.000000
G01 X162.581463 Y232.289323 Z-0.125000
G01 X160.176926 Y225.093760 Z-0.125000
G03 X159.803851 Y223.861438 Z-0.125000 I49.986713 J-15.805663
G03 X159.507950 Y222.646374 Z-0.125000 I14.033948 J-4.061207
G01 X159.472397 Y222.646374 Z-0.125000
G03 X159.203573 Y223.827742 Z-0.125000 I-13.242641 J-2.392143
G03 X158.803422 Y225.167057 Z-0.125000 I-31.262830 J-8.611041
G01 X156.452577 Y232.289323 Z-0.125000
G01 X154.102456 Y232.289323 Z-0.125000
G01 X152.276198 Y219.961506 Z-0.125000
G01 X154.283123 Y219.961506 Z-0.125000
G01 X155.060934 Y226.335410 Z-0.125000
G02 X155.247671 Y228.013905 Z-0.125000 I260.392129 J-28.119625
G03 X155.385989 Y229.531891 Z-0.125000 I-32.707828 J3.745625
G01 X155.422268 Y229.531891 Z-0.125000
G03 X155.727735 Y228.143029 Z-0.125000 I12.422530 J2.004198
G03 X156.200078 Y226.609541 Z-0.125000 I29.986510 J8.396922
G01 X158.387671 Y219.961506 Z-0.125000
G01 X160.430149 Y219.961506 Z-0.125000
G01 X162.726577 Y227.121154 Z-0.125000
G03 X163.126065 Y228.500453 Z-0.125000 I-16.100293 J5.410647
G03 X163.359274 Y229.531891 Z-0.125000 I-29.741156 J7.266577
G01 X163.395553 Y229.531891 Z-0.125000
G03 X163.525412 Y228.390033 Z-0.125000 I315.687279 J35.323624
G03 X163.775025 Y226.517920 Z-0.125000 I53.601727 J6.194159
G01 X164.733503 Y219.961506 Z-0.125000
G01 X166.812260 Y219.961506 Z-0.125000
G00 Z5.000000

(End cutting path id: path3805)


(Start cutting path id: path3799)
(Change tool to Default tool)

G00 Z5.000000
G00 X138.655800 Y219.961506

G01 Z-0.125000 F100.0(Penetrate)
G01 X133.629779 Y226.335410 Z-0.125000 F400.000000
G01 X138.475133 Y232.289323 Z-0.125000
G01 X136.052456 Y232.289323 Z-0.125000
G01 X131.604714 Y226.572892 Z-0.125000
G01 X131.604714 Y232.289323 Z-0.125000
G01 X129.634067 Y232.289323 Z-0.125000
G01 X129.634067 Y219.961506 Z-0.125000
G01 X131.604714 Y219.961506 Z-0.125000
G01 X131.604714 Y225.988716 Z-0.125000
G01 X136.034317 Y219.961506 Z-0.125000
G01 X138.655800 Y219.961506 Z-0.125000
G00 Z5.000000

(End cutting path id: path3799)


(Start cutting path id: path3795)
(Change tool to Default tool)

G00 Z5.000000
G00 X126.119410 Y232.297385

G01 Z-0.125000 F100.0(Penetrate)
G01 X124.150210 Y232.297385 Z-0.125000 F400.000000
G01 X124.150210 Y219.968835 Z-0.125000
G01 X126.119410 Y219.968835 Z-0.125000
G01 X126.119410 Y232.297385 Z-0.125000
G00 Z5.000000

(End cutting path id: path3795)


(Start cutting path id: path3789)
(Change tool to Default tool)

G00 Z5.000000
G00 X120.636280 Y219.961506

G01 Z-0.125000 F100.0(Penetrate)
G01 X120.636280 Y232.289323 Z-0.125000 F400.000000
G01 X118.720051 Y232.289323 Z-0.125000
G01 X118.720051 Y228.636935 Z-0.125000
G03 X118.753834 Y225.340110 Z-0.125000 I160.878355 J-0.000000
G03 X118.846300 Y222.773911 Z-0.125000 I82.701294 J1.695125
G03 X118.149967 Y224.144040 Z-0.125000 I-274.703819 J-138.749105
G03 X117.363961 Y225.568724 Z-0.125000 I-23.035954 J-11.779898
G01 X113.331970 Y232.289323 Z-0.125000
G01 X110.746766 Y232.289323 Z-0.125000
G01 X110.746766 Y219.961506 Z-0.125000
G01 X112.662995 Y219.961506 Z-0.125000
G01 X112.662995 Y224.107182 Z-0.125000
G03 X112.638618 Y227.341949 Z-0.125000 I-214.630952 J0.000000
G03 X112.554885 Y229.568539 Z-0.125000 I-49.477922 J-0.745781
G03 X113.147715 Y228.345893 Z-0.125000 I32.200256 J14.858031
G03 X113.910975 Y226.974560 Z-0.125000 I18.780460 J9.554796
G01 X118.087354 Y219.961506 Z-0.125000
G01 X120.636280 Y219.961506 Z-0.125000
G00 Z5.000000

(End cutting path id: path3789)


(Start cutting path id: path3783)
(Change tool to Default tool)

G00 Z5.000000
G00 X107.389550 Y219.961506

G01 Z-0.125000 F100.0(Penetrate)
G01 X107.389550 Y232.289323 Z-0.125000 F400.000000
G01 X105.437042 Y232.289323 Z-0.125000
G01 X105.437042 Y227.193718 Z-0.125000
G01 X99.669489 Y227.193718 Z-0.125000
G01 X99.669489 Y232.289323 Z-0.125000
G01 X97.698842 Y232.289323 Z-0.125000
G01 X97.698842 Y219.961506 Z-0.125000
G01 X99.669489 Y219.961506 Z-0.125000
G01 X99.669489 Y225.495427 Z-0.125000
G01 X105.437042 Y225.495427 Z-0.125000
G01 X105.437042 Y219.961506 Z-0.125000
G01 X107.389550 Y219.961506 Z-0.125000
G00 Z5.000000

(End cutting path id: path3783)


(Start cutting path id: path3777)
(Change tool to Default tool)

G00 Z5.000000
G00 X75.711183 Y230.611555

G01 Z-0.125000 F100.0(Penetrate)
G01 X75.711183 Y232.291521 Z-0.125000 F400.000000
G01 X66.888256 Y232.291521 Z-0.125000
G01 X66.888256 Y230.611555 Z-0.125000
G01 X70.334712 Y230.611555 Z-0.125000
G01 X70.334712 Y219.963705 Z-0.125000
G01 X72.305359 Y219.963705 Z-0.125000
G01 X72.305359 Y230.611555 Z-0.125000
G01 X75.711183 Y230.611555 Z-0.125000
G00 Z5.000000

(End cutting path id: path3777)


(Start cutting path id: path3771)
(Change tool to Default tool)

G00 Z5.000000
G00 X86.348034 Y240.726536

G01 Z-0.125000 F100.0(Penetrate)
G01 X86.348034 Y253.054353 Z-0.125000 F400.000000
G01 X84.395526 Y253.054353 Z-0.125000
G01 X84.395526 Y247.958748 Z-0.125000
G01 X78.627973 Y247.958748 Z-0.125000
G01 X78.627973 Y253.054353 Z-0.125000
G01 X76.657326 Y253.054353 Z-0.125000
G01 X76.657326 Y240.726536 Z-0.125000
G01 X78.627973 Y240.726536 Z-0.125000
G01 X78.627973 Y246.260457 Z-0.125000
G01 X84.395526 Y246.260457 Z-0.125000
G01 X84.395526 Y240.726536 Z-0.125000
G01 X86.348034 Y240.726536 Z-0.125000
G00 Z5.000000

(End cutting path id: path3771)


(Start cutting path id: path3765)
(Change tool to Default tool)

G00 Z5.000000
G00 X74.085907 Y251.369256

G01 Z-0.125000 F100.0(Penetrate)
G01 X74.085907 Y253.049222 Z-0.125000 F400.000000
G01 X67.192270 Y253.049222 Z-0.125000
G01 X67.192270 Y240.721406 Z-0.125000
G01 X69.162917 Y240.721406 Z-0.125000
G01 X69.162917 Y246.271452 Z-0.125000
G01 X73.387909 Y246.271452 Z-0.125000
G01 X73.387909 Y247.897179 Z-0.125000
G01 X69.162917 Y247.897179 Z-0.125000
G01 X69.162917 Y251.369256 Z-0.125000
G01 X74.085907 Y251.369256 Z-0.125000
G00 Z5.000000

(End cutting path id: path3765)


(Start cutting path id: path3759)
(Change tool to Default tool)

G00 Z5.000000
G00 X111.148000 Y199.079200

G01 Z-0.125000 F100.0(Penetrate)
G01 X111.148000 Y211.407017 Z-0.125000 F400.000000
G01 X109.231771 Y211.407017 Z-0.125000
G01 X109.231771 Y207.754629 Z-0.125000
G03 X109.265554 Y204.457804 Z-0.125000 I160.878355 J0.000000
G03 X109.358020 Y201.891605 Z-0.125000 I82.701294 J1.695125
G03 X108.661687 Y203.261734 Z-0.125000 I-274.703819 J-138.749105
G03 X107.875681 Y204.686418 Z-0.125000 I-23.035954 J-11.779898
G01 X103.843690 Y211.407017 Z-0.125000
G01 X101.258486 Y211.407017 Z-0.125000
G01 X101.258486 Y199.079200 Z-0.125000
G01 X103.174715 Y199.079200 Z-0.125000
G01 X103.174715 Y203.224876 Z-0.125000
G03 X103.149941 Y206.459667 Z-0.125000 I-211.200800 J-0.000000
G03 X103.066605 Y208.686233 Z-0.125000 I-50.422345 J-0.772369
G03 X103.659435 Y207.463587 Z-0.125000 I32.200256 J14.858031
G03 X104.422695 Y206.092254 Z-0.125000 I18.780460 J9.554796
G01 X108.599074 Y199.079200 Z-0.125000
G01 X111.148000 Y199.079200 Z-0.125000
G00 Z5.000000

(End cutting path id: path3759)


(Start cutting path id: path3753)
(Change tool to Default tool)

G00 Z5.000000
G00 X98.508581 Y199.079200

G01 Z-0.125000 F100.0(Penetrate)
G01 X98.508581 Y200.777491 Z-0.125000 F400.000000
G01 X94.042700 Y200.777491 Z-0.125000
G01 X94.042700 Y204.613121 Z-0.125000
G01 X97.670548 Y204.613121 Z-0.125000
G01 X97.670548 Y206.238848 Z-0.125000
G01 X94.042700 Y206.238848 Z-0.125000
G01 X94.042700 Y209.745374 Z-0.125000
G01 X98.508581 Y209.745374 Z-0.125000
G01 X98.508581 Y211.407017 Z-0.125000
G01 X92.072053 Y211.407017 Z-0.125000
G01 X92.072053 Y199.079200 Z-0.125000
G01 X98.508581 Y199.079200 Z-0.125000
G00 Z5.000000

(End cutting path id: path3753)


(Start cutting path id: path3749)
(Change tool to Default tool)

G00 Z5.000000
G00 X88.814971 Y211.407750

G01 Z-0.125000 F100.0(Penetrate)
G01 X86.844324 Y211.407750 Z-0.125000 F400.000000
G01 X86.844324 Y199.079933 Z-0.125000
G01 X88.814971 Y199.079933 Z-0.125000
G01 X88.814971 Y211.407750 Z-0.125000
G00 Z5.000000

(End cutting path id: path3749)


(Start cutting path id: path3743)
(Change tool to Default tool)

G00 Z5.000000
G00 X84.490576 Y211.407750

G01 Z-0.125000 F100.0(Penetrate)
G01 X82.519929 Y211.407750 Z-0.125000 F400.000000
G01 X80.621839 Y203.700574 Z-0.125000
G03 X80.390013 Y202.685307 Z-0.125000 I13.695399 J-3.661308
G03 X80.187948 Y201.545643 Z-0.125000 I46.320973 J-8.800545
G01 X80.169809 Y201.545643 Z-0.125000
G03 X79.937243 Y202.771204 Z-0.125000 I-22.661800 J-3.665524
G03 X79.681500 Y203.809787 Z-0.125000 I-19.548984 J-4.262996
G01 X77.548326 Y211.407750 Z-0.125000
G01 X75.397012 Y211.407750 Z-0.125000
G01 X73.317529 Y203.828111 Z-0.125000
G03 X73.042079 Y202.692590 Z-0.125000 I12.705030 J-3.683106
G03 X72.829221 Y201.490671 Z-0.125000 I32.341805 J-6.347493
G01 X72.811081 Y201.490671 Z-0.125000
G03 X72.617589 Y202.697563 Z-0.125000 I-21.530697 J-2.832904
G03 X72.340912 Y203.919732 Z-0.125000 I-17.338461 J-3.282709
G01 X70.460961 Y211.407750 Z-0.125000
G01 X68.364065 Y211.407750 Z-0.125000
G01 X71.527549 Y199.079933 Z-0.125000
G01 X73.842116 Y199.079933 Z-0.125000
G01 X75.902734 Y206.732137 Z-0.125000
G03 X76.161527 Y207.881063 Z-0.125000 I-17.853041 J4.624973
G03 X76.336624 Y209.015337 Z-0.125000 I-15.462642 J2.967610
G01 X76.354764 Y209.015337 Z-0.125000
G03 X76.557102 Y207.835694 Z-0.125000 I61.164502 J9.884070
G03 X76.824933 Y206.695488 Z-0.125000 I11.262637 J2.043999
G01 X78.904415 Y199.079933 Z-0.125000
G01 X81.326367 Y199.079933 Z-0.125000
G01 X84.490576 Y211.407750 Z-0.125000
G00 Z5.000000

(End cutting path id: path3743)


(Start cutting path id: path3737)
(Change tool to Default tool)

G00 Z5.000000
G00 X117.293580 Y195.791100

G01 Z-0.125000 F100.0(Penetrate)
G01 X117.293580 Y214.521407 Z-0.125000 F400.000000
G01 X63.290882 Y214.521407 Z-0.125000
G02 X63.612574 Y207.983558 Z-0.125000 I-24.629508 J-4.488722
G02 X61.058304 Y195.791100 Z-0.125000 I-49.962770 J4.103211
G01 X117.293580 Y195.791100 Z-0.125000
G00 Z5.000000

(End cutting path id: path3737)


(Start cutting path id: path3731)
(Change tool to Default tool)

G00 Z5.000000
G00 X172.915750 Y216.743769

G01 Z-0.125000 F100.0(Penetrate)
G01 X172.915750 Y235.474076 Z-0.125000 F400.000000
G01 X55.917644 Y235.474076 Z-0.125000
G03 X57.561245 Y229.648790 Z-0.125000 I34.300262 J6.533287
G03 X59.209553 Y225.720448 Z-0.125000 I56.129632 J21.241673
G03 X60.896951 Y221.997034 Z-0.125000 I71.415628 J30.120464
G02 X62.848285 Y216.743769 Z-0.125000 I-26.238894 J-12.735530
G01 X172.917201 Y216.743769 Z-0.125000
G01 X172.915750 Y216.743769 Z-0.125000
G00 Z5.000000

(End cutting path id: path3731)


(Start cutting path id: path3721)
(Change tool to Default tool)

G00 Z5.000000
G00 X92.566166 Y237.538118

G01 Z-0.125000 F100.0(Penetrate)
G01 X92.566166 Y256.268425 Z-0.125000 F400.000000
G01 X59.622402 Y256.268425 Z-0.125000
G03 X55.753542 Y245.433710 Z-0.125000 I27.552305 J-15.946480
G03 X55.607825 Y237.538118 Z-0.125000 I27.380871 J-4.454469
G01 X92.566166 Y237.538118 Z-0.125000
G00 Z5.000000

(End cutting path id: path3721)


(Footer)
M5
G00 X0.0000 Y0.0000
M2
(Using default footer. To add your own footer create file "footer" in the output dir.)
(end)
%